packages/katcn/src/icons/svg/load.svg

<svg width="24" height="25" viewBox="0 0 24 25" fill="none" xmlns="http://www.w3.org/2000/svg">
<path d="M12 2.31201C11.4 2.31201 11 2.71201 11 3.31201V5.81201C11 6.41201 11.4 6.81201 12 6.81201C12.6 6.81201 13 6.41201 13 5.81201V3.31201C13 2.71201 12.6 2.31201 12 2.31201Z" fill="black"/>
<path d="M6.69998 8.41202C6.89998 8.61202 7.19998 8.71202 7.39998 8.71202C7.59998 8.71202 7.89998 8.61202 8.09998 8.41202C8.49998 8.01202 8.49998 7.41202 8.09998 7.01202L6.29998 5.21202C5.89998 4.81202 5.29998 4.81202 4.89998 5.21202C4.49998 5.61202 4.49998 6.21202 4.89998 6.61202L6.69998 8.41202Z" fill="black"/>
<path d="M6.5 12.312C6.5 11.712 6.1 11.312 5.5 11.312H3C2.4 11.312 2 11.712 2 12.312C2 12.912 2.4 13.312 3 13.312H5.5C6 13.312 6.5 12.912 6.5 12.312Z" fill="black"/>
<path d="M6.69995 16.212L4.99995 17.912C4.59995 18.312 4.59995 18.912 4.99995 19.312C5.19995 19.512 5.49995 19.612 5.69995 19.612C5.89995 19.612 6.19995 19.512 6.39995 19.312L8.09995 17.612C8.49995 17.212 8.49995 16.612 8.09995 16.212C7.69995 15.812 7.09995 15.812 6.69995 16.212Z" fill="black"/>
<path d="M12 17.812C11.4 17.812 11 18.212 11 18.812V21.312C11 21.912 11.4 22.312 12 22.312C12.6 22.312 13 21.912 13 21.312V18.812C13 18.312 12.6 17.812 12 17.812Z" fill="black"/>
<path d="M17.3 16.212C16.9 15.812 16.3 15.812 15.9 16.212C15.5 16.612 15.5 17.212 15.9 17.612L17.6 19.312C17.8 19.512 18.1 19.612 18.3 19.612C18.5 19.612 18.8 19.512 19 19.312C19.4 18.912 19.4 18.312 19 17.912L17.3 16.212Z" fill="black"/>
<path d="M21 11.312H18.5C17.9 11.312 17.5 11.712 17.5 12.312C17.5 12.912 17.9 13.312 18.5 13.312H21C21.6 13.312 22 12.912 22 12.312C22 11.712 21.6 11.312 21 11.312Z" fill="black"/>
<path d="M16.6 8.71202C16.9 8.71202 17.1 8.61202 17.3 8.41202L19 6.71202C19.4 6.31202 19.4 5.71202 19 5.31202C18.6 4.91202 18 4.91202 17.6 5.31202L15.9 7.01202C15.5 7.41202 15.5 8.01202 15.9 8.41202C16.1 8.61202 16.4 8.71202 16.6 8.71202Z" fill="black"/>
</svg>

<svg xmlns="http://www.w3.org/2000/svg" fill="none" viewBox="0 0 24 25"><path fill="#000" d="M12 2.312c-.6 0-1 .4-1 1v2.5c0 .6.4 1 1 1s1-.4 1-1v-2.5c0-.6-.4-1-1-1m-5.3 6.1c.2.2.5.3.7.3s.5-.1.7-.3c.4-.4.4-1 0-1.4l-1.8-1.8c-.4-.4-1-.4-1.4 0s-.4 1 0 1.4zm-.2 3.9c0-.6-.4-1-1-1H3c-.6 0-1 .4-1 1s.4 1 1 1h2.5c.5 0 1-.4 1-1m.2 3.9-1.7 1.7c-.4.4-.4 1 0 1.4.2.2.5.3.7.3s.5-.1.7-.3l1.7-1.7c.4-.4.4-1 0-1.4s-1-.4-1.4 0m5.3 1.6c-.6 0-1 .4-1 1v2.5c0 .6.4 1 1 1s1-.4 1-1v-2.5c0-.5-.4-1-1-1m5.3-1.6c-.4-.4-1-.4-1.4 0s-.4 1 0 1.4l1.7 1.7c.2.2.5.3.7.3s.5-.1.7-.3c.4-.4.4-1 0-1.4zm3.7-4.9h-2.5c-.6 0-1 .4-1 1s.4 1 1 1H21c.6 0 1-.4 1-1s-.4-1-1-1m-4.4-2.6c.3 0 .5-.1.7-.3l1.7-1.7c.4-.4.4-1 0-1.4s-1-.4-1.4 0l-1.7 1.7c-.4.4-.4 1 0 1.4.2.2.5.3.7.3"/></svg>
